tools/download-figma-icons/icons/outlined-medium/cloud-disconnect.svg

<svg width="24" height="24" viewBox="0 0 24 24" fill="none" xmlns="http://www.w3.org/2000/svg">
<path fill-rule="evenodd" clip-rule="evenodd" d="M5.085 8.82C5.655 5.4975 8.565 3 12 3C14.1525 3 16.125 3.9675 17.4225 5.54925L16.3508 6.6225C15.3375 5.31 13.7475 4.5 12 4.5C9.10575 4.5 6.6825 6.765 6.495 9.6525L6.4425 10.4543L5.6475 10.3425C5.64064 10.3418 5.63379 10.3412 5.62696 10.3405C5.47692 10.3262 5.33314 10.3125 5.1825 10.3125C3.15 10.3125 1.5 11.9618 1.5 13.9943C1.5 16.0192 3.15 17.67 5.1825 17.67H5.3025L3.9525 19.0192C1.6875 18.465 0 16.4243 0 13.9943C0 11.1675 2.2725 8.86425 5.085 8.82ZM9.54755 17.6697H18.09C20.52 17.6697 22.5 15.6897 22.5 13.2522C22.5 10.9122 20.6633 8.99216 18.36 8.85715L9.54755 17.6697ZM21.5626 5.65463L19.6658 7.55213C22.1633 8.24963 24.0001 10.5446 24.0001 13.2521C24.0001 16.5146 21.3533 19.1696 18.0901 19.1696H8.04755L5.6993 21.5171C5.55755 21.6596 5.36255 21.7346 5.1683 21.7346C4.9808 21.7346 4.78505 21.6596 4.64255 21.5171C4.3508 21.2246 4.3508 20.7521 4.64255 20.4596V20.4521L20.4976 4.59713C20.7908 4.30463 21.2618 4.30463 21.5551 4.59713H21.5626C21.8558 4.88963 21.8558 5.36213 21.5626 5.65463Z" fill="black"/>
</svg>

<svg xmlns="http://www.w3.org/2000/svg" width="24" height="24" fill="none" viewBox="0 0 24 24"><path fill="currentColor" fill-rule="evenodd" d="M5.085 8.82A7.03 7.03 0 0 1 12 3c2.153 0 4.125.967 5.422 2.55l-1.071 1.072A5.48 5.48 0 0 0 12 4.5c-2.894 0-5.317 2.265-5.505 5.153l-.053.801-.795-.112-.02-.002a5 5 0 0 0-.444-.027A3.684 3.684 0 0 0 1.5 13.994a3.683 3.683 0 0 0 3.683 3.676h.12l-1.35 1.35C1.688 18.464 0 16.423 0 13.993A5.176 5.176 0 0 1 5.085 8.82m4.463 8.85h8.542c2.43 0 4.41-1.98 4.41-4.418a4.41 4.41 0 0 0-4.14-4.395zM21.563 5.655l-1.897 1.897c2.497.698 4.334 2.993 4.334 5.7 0 3.263-2.647 5.918-5.91 5.918H8.048l-2.349 2.347a.75.75 0 0 1-1.056 0 .75.75 0 0 1 0-1.057v-.008L20.498 4.597a.747.747 0 0 1 1.057 0h.008a.746.746 0 0 1 0 1.058" clip-rule="evenodd"/></svg>
